svg_80x80/cryengine.svg

<svg viewBox="0 0 80 80" xmlns="http://www.w3.org/2000/svg">
<rect width="100%" height="100%" fill="black"/>
<path fill-rule="evenodd" clip-rule="evenodd" d="M51.1041 50.6087C50.7351 50.6363 50.3661 50.664 49.9992 50.7008L49.842 50.3324C50.1321 49.9695 50.3978 49.588 50.6375 49.1903C51.4982 47.7671 52.2406 46.2762 52.8575 44.7325C53.7995 41.6939 53.6146 38.4195 52.3362 35.5053C51.0579 32.591 48.7711 30.2307 45.8922 28.8539C42.9496 27.4385 39.5936 27.125 36.4379 27.9705C33.2822 28.8161 30.5376 30.7643 28.7057 33.459C24.8947 39.2984 25.5607 49.1166 33.9967 53.2705C37.4255 54.9245 41.1679 55.8349 44.9765 55.9415C53.2665 56.3909 61.4896 54.2425 68.49 49.7982C71.1923 48.1017 73.6479 46.044 75.7882 43.6825C77.296 42.0154 77.3792 40.7813 76.1397 38.9392C75.6292 38.1929 75.0568 37.4904 74.4285 36.8392C70.3056 32.6611 65.3184 29.427 59.8135 27.3618C55.2966 25.5564 50.5372 24.4237 45.6887 24C45.9416 24.1286 46.2045 24.2364 46.475 24.3224C47.4596 24.734 48.4563 25.129 49.4551 25.5248C51.8528 26.4749 54.2627 27.4299 56.5482 28.6328C61.3622 31.0914 65.4926 34.6948 68.5732 39.1234C69.896 41.0576 69.859 41.776 68.157 43.3509C64.0018 47.0878 58.8365 49.5281 53.3015 50.3692C52.58 50.4982 51.842 50.5534 51.1041 50.6087ZM34.3018 35.366C35.7712 33.915 37.7548 33.0977 39.8242 33.0906H39.8705C40.9018 33.0772 41.9255 33.2679 42.8822 33.6516C43.839 34.0353 44.7096 34.6044 45.4437 35.3259C46.1777 36.0474 46.7605 36.9068 47.1583 37.8544C47.556 38.8019 47.7608 39.8187 47.7607 40.8457C47.797 41.9007 47.6196 42.9521 47.2392 43.9374C46.8588 44.9227 46.2831 45.8216 45.5464 46.5807C44.8097 47.3398 43.9271 47.9434 42.9512 48.3557C41.9752 48.768 40.926 48.9805 39.8658 48.9805C38.8057 48.9805 37.7564 48.768 36.7805 48.3557C35.8046 47.9434 34.922 47.3398 34.1853 46.5807C33.4486 45.8216 32.8729 44.9227 32.4925 43.9374C32.112 42.9521 31.9347 41.9007 31.971 40.8457C31.9952 38.7853 32.8325 36.817 34.3018 35.366Z" fill="white"/>
<path d="M29.7233 55.6375C30.0036 55.6559 30.2847 55.6559 30.565 55.6375L30.6113 55.4165L29.0665 54.8915C24.6805 53.4547 20.5341 51.3749 16.764 48.7205C14.4516 47.1369 12.485 45.1036 10.9828 42.743C10.6203 42.2687 10.4334 41.6842 10.4536 41.0885C10.4739 40.4928 10.7 39.9223 11.0938 39.4734C11.4184 39.0854 11.7342 38.685 12.0501 38.2844C12.5891 37.6009 13.1283 36.9172 13.7115 36.2958C18.7415 31.0725 24.9368 27.103 31.7953 24.7092C32.0043 24.6376 32.2041 24.5431 32.4045 24.4483C32.4878 24.4089 32.5713 24.3694 32.6555 24.3315C32.3613 24.2171 32.0405 24.1884 31.7305 24.2487C23.8589 25.4677 16.4042 28.5785 10.0115 33.3116C7.9026 34.934 5.94872 36.747 4.17478 38.7273C2.62078 40.422 2.62078 41.7575 4.09153 43.4338C5.48439 45.0595 7.05068 46.5295 8.76278 47.8179C15.025 52.3586 22.1938 54.477 29.7233 55.6375Z" fill="white"/>
</svg>

<svg xmlns="http://www.w3.org/2000/svg" viewBox="0 0 80 80">
  <rect width="100%" height="100%"/>
  <path fill="#fff" fill-rule="evenodd" d="m51.1 50.6-1.1.1-.2-.4.8-1.1c.9-1.4 1.6-3 2.3-4.5a13.2 13.2 0 0 0-7-15.8 13.7 13.7 0 0 0-17.2 4.6C25 39.3 25.6 49 34 53.3a27 27 0 0 0 11 2.6 39.9 39.9 0 0 0 30.8-12.2c1.5-1.7 1.6-3 .3-4.8-.5-.7-1-1.4-1.7-2a40.5 40.5 0 0 0-14.6-9.5 49.7 49.7 0 0 0-13.3-3l3 1.1c2.4 1 4.8 2 7 3.1 4.9 2.5 9 6 12 10.5 1.4 2 1.4 2.7-.3 4.3a28.7 28.7 0 0 1-14.9 7l-2.2.2ZM34.3 35.4a7.9 7.9 0 0 1 5.5-2.3 7.8 7.8 0 0 1 8 7.7 7.8 7.8 0 0 1-8 8.2 8 8 0 0 1-5.5-13.6Z" clip-rule="evenodd"/>
  <path fill="#fff" d="M29.7 55.6h.9v-.2l-1.5-.5a46.5 46.5 0 0 1-12.3-6.2 20.7 20.7 0 0 1-5.8-6 2.6 2.6 0 0 1 0-3.2 52.9 52.9 0 0 0 2.7-3.2 46.3 46.3 0 0 1 18.7-11.9h.3c-.3-.2-.7-.2-1-.2A49.1 49.1 0 0 0 4.2 38.7c-1.6 1.7-1.6 3-.1 4.7 1.4 1.7 3 3.1 4.7 4.4a46.9 46.9 0 0 0 21 7.8Z"/>
</svg>
